src/scalable/apps/masterpdfeditor4.svg

<?xml version="1.0" encoding="UTF-8" standalone="no"?>
<svg
   width="64"
   height="64"
   viewBox="0 0 16.933 16.933"
   version="1.1"
   id="svg1"
   sodipodi:docname="masterpdfeditor4.svg"
   xml:space="preserve"
   inkscape:version="1.3.2 (091e20ef0f, 2023-11-25, custom)"
   xmlns:inkscape="http://www.inkscape.org/namespaces/inkscape"
   xmlns:sodipodi="http://sodipodi.sourceforge.net/DTD/sodipodi-0.dtd"
   xmlns="http://www.w3.org/2000/svg"
   xmlns:svg="http://www.w3.org/2000/svg"><defs
     id="defs1"><linearGradient
       x1="33.866"
       y1="0"
       x2="33.866"
       y2="67.732"
       id="linearGradient-1"
       gradientUnits="userSpaceOnUse"
       gradientTransform="matrix(0.05581254,0,0,0.05581254,1.3228905,1.3228904)"><stop
         stop-color="#24ADFF"
         offset="0%"
         id="stop1" /><stop
         stop-color="#7B71FF"
         offset="100%"
         id="stop2" /></linearGradient></defs><sodipodi:namedview
     id="namedview1"
     pagecolor="#505050"
     bordercolor="#eeeeee"
     borderopacity="1"
     inkscape:showpageshadow="0"
     inkscape:pageopacity="0"
     inkscape:pagecheckerboard="0"
     inkscape:deskcolor="#505050"
     inkscape:zoom="6.0469258"
     inkscape:cx="7.0283647"
     inkscape:cy="29.436445"
     inkscape:window-width="1440"
     inkscape:window-height="831"
     inkscape:window-x="0"
     inkscape:window-y="0"
     inkscape:window-maximized="1"
     inkscape:current-layer="svg1" /><circle
     cx="8.466"
     cy="8.466"
     r="7.144"
     fill="#b52cc1"
     style="paint-order:stroke markers fill;fill:#267eb6;fill-opacity:1"
     id="circle1" /><path
     style="fill:#fefcfe;fill-opacity:1;stroke-width:0.264578"
     d="m 5.0804381,5.6853915 c 0,0 -0.8388182,0.6255701 -0.9158199,0.799481 -0.077002,0.1739112 -0.2522665,0.7961367 -0.1848999,0.9526088 0.067367,0.1564723 0.3018341,0.1475996 0.3018341,0.1475996 0,0 2.1983101,-1.2018429 2.4610203,-1.3378485 0.2627099,-0.1360053 0.2955205,0.3050308 0.2955205,0.3050308 0,0 0.036383,0.1148933 -0.071108,0.3090376 C 6.8594934,7.0554447 6.2876975,8.0894372 6.1957667,8.2064387 6.1038361,8.3234402 5.0979072,9.9316581 4.8245123,10.208883 c -0.2733947,0.277225 0.1989233,0.954018 0.1989233,0.954018 0,0 0.043093,0.06631 0.1290056,0.07742 0.085913,0.0111 0.1818824,-0.04482 0.2242191,-0.09002 0.042337,-0.0452 0.9826284,-1.4482366 0.9826284,-1.4482366 L 7.1859098,8.5700103 c 0,0 1.5265697,-1.9451582 1.7650139,-1.8928609 0.2384441,0.052297 0.1623152,0.3146857 0.1623152,0.3146857 0,0 -0.4866237,0.9587486 -0.5709109,1.0362292 -0.084287,0.077481 -1.3683742,2.1353277 -1.5873795,2.3241297 -0.2190056,0.188802 0.1842154,1.036358 0.1842154,1.036358 0,0 0.074455,0.155734 0.2212262,0.03571 0.1467707,-0.120026 0.8725786,-1.050116 0.8980675,-1.090136 0.025489,-0.04002 0.9786859,-1.1860894 0.9927982,-1.2064453 0.014113,-0.020357 1.7869952,-1.8487377 1.9579832,-1.8644431 0.170989,-0.015705 0.09832,0.1235829 0.09832,0.1235829 0,0 -0.958571,1.1472284 -0.990288,1.1939098 -0.03172,0.046681 -0.847588,1.2188677 -0.8877846,1.6241977 -0.040197,0.405329 -0.097956,0.736428 0.1446465,1.179411 0.2425785,0.44294 0.7549631,0.244855 0.8583061,0.204942 0.08544,-0.04387 0.558497,-0.290122 0.81098,-0.478176 0.239932,-0.178706 0.64566,-0.500477 0.7624,-0.602643 0.127317,-0.111423 0.335572,-0.266202 0.371376,-0.350087 0.0358,-0.08389 -0.03157,-0.3091506 -0.03157,-0.3091506 0,0 -0.443145,0.3037756 -0.71839,0.4853206 -0.268852,0.177328 -0.454178,0.373159 -0.753356,0.413793 -0.192196,0.0261 -0.347613,-0.02429 -0.412225,-0.07132 -0.101145,-0.07064 -0.104365,-0.200849 -0.07094,-0.398726 0.03342,-0.197877 0.07149,-0.3631558 0.12273,-0.5114211 0.1094,-0.3165738 0.129618,-0.3320969 0.284976,-0.6280668 0.199437,-0.2978179 0.184366,-0.3151809 0.365443,-0.593987 0.328749,-0.506177 0.604352,-0.9036902 0.802774,-1.1364953 0.210362,-0.2468136 0.827574,-0.8276558 0.956721,-0.9993799 0.126984,-0.1688481 -0.06108,-0.4739271 -0.06108,-0.4739271 0,0 -0.220348,-0.2731323 -0.344008,-0.2908515 -0.125478,-0.01798 -0.328312,0.027353 -0.50053,0.1464748 -0.125745,0.1355811 -1.225786,1.061957 -1.336978,1.1884364 C 10.56957,7.1055537 8.9222487,8.7681933 8.8007094,8.8517566 8.6791702,8.9353199 9.4433562,7.8100242 9.4433562,7.8100242 L 9.8748019,6.9097683 c 0,0 0.3679971,-0.7790064 0.3659051,-0.8614754 -0.0021,-0.082469 0.03905,-0.2401496 -0.06165,-0.3649714 C 10.07836,5.5584996 9.9073389,5.51922 9.9073389,5.51922 c 0,0 -0.2112172,-0.059812 -0.4080808,0.093073 C 9.3023945,5.765179 8.8450727,6.1199551 8.7302907,6.2218308 8.6323257,6.3087808 7.9464605,7.0247852 7.9464605,7.0247852 L 6.8646268,8.2882319 c 0,0 0.012567,-0.1406238 0.3265772,-0.7435568 C 7.5052138,6.9417423 7.7190151,6.1444822 7.7080955,6.0022553 7.6968705,5.8560514 7.6175184,5.3920226 7.3374758,5.2790061 7.0441715,5.1606376 5.2931293,5.775542 4.8885081,6.1394192 4.4838872,6.5032967 5.150269,5.8036055 5.150269,5.8036055 c 0,0 0.027114,-0.070706 0.0038,-0.096968 C 5.130752,5.6803755 5.080441,5.6853915 5.080441,5.6853915 Z"
     id="path1"
     sodipodi:nodetypes="csscscsssccsccscsscssssccsscssccssccscssscscsscccccssccsssscccc" /></svg>

<svg xmlns="http://www.w3.org/2000/svg" xml:space="preserve" width="64" height="64" viewBox="0 0 16.933 16.933"><circle cx="8.466" cy="8.466" r="7.144" fill="#b52cc1" style="paint-order:stroke markers fill;fill:#267eb6;fill-opacity:1"/><path d="M5.08 5.685s-.838.626-.915.8-.253.796-.185.952c.067.157.302.148.302.148s2.198-1.202 2.46-1.338c.263-.136.296.305.296.305s.036.115-.071.31c-.108.193-.68 1.227-.771 1.344-.092.117-1.098 1.726-1.371 2.003-.274.277.198.954.198.954s.044.066.13.077c.085.011.181-.044.224-.09.042-.045.982-1.448.982-1.448l.827-1.132S8.712 6.625 8.95 6.677s.162.315.162.315-.486.959-.57 1.036c-.085.078-1.369 2.135-1.588 2.324s.184 1.037.184 1.037.075.155.221.035.873-1.05.898-1.09.98-1.186.993-1.206 1.787-1.85 1.958-1.865.099.124.099.124-.959 1.147-.99 1.194-.848 1.219-.889 1.624c-.04.405-.097.736.145 1.18.243.442.755.244.858.204.086-.044.559-.29.811-.478.24-.179.646-.5.763-.603.127-.111.335-.266.371-.35s-.031-.309-.031-.309-.444.304-.719.486c-.269.177-.454.373-.753.413a.6.6 0 0 1-.412-.071c-.101-.07-.105-.2-.071-.399.033-.198.071-.363.122-.511.11-.317.13-.332.285-.628.2-.298.185-.315.366-.594.329-.506.604-.904.803-1.137.21-.246.827-.827.956-1 .127-.168-.06-.473-.06-.473s-.221-.273-.345-.29c-.125-.019-.328.027-.5.146-.126.135-1.226 1.062-1.337 1.188-.111.127-1.759 1.79-1.88 1.873-.122.083.642-1.042.642-1.042l.432-.9s.368-.78.366-.862.039-.24-.062-.365c-.1-.125-.272-.164-.272-.164s-.21-.06-.408.093-.654.508-.769.61c-.098.087-.784.803-.784.803l-1.08 1.263s.012-.14.326-.743.528-1.4.517-1.543c-.011-.146-.09-.61-.37-.723-.294-.118-2.045.497-2.45.86-.404.364.262-.335.262-.335s.027-.071.004-.097-.074-.022-.074-.022" style="fill:#fefcfe;fill-opacity:1;stroke-width:.264578"/></svg>
